X:28
T:Double Bransle (2)
M:C|
L:1/4
K:C
G d d c | B2 A2 | G > A B/c/ d | d ^c d2 :|
|: d/_e/d/c/ B/A/ G | c/d/c/B/ A/G/ F | A/B/c/d/ B c/B/ | [1 A/G/ ^F G2 :| [2 HG2 |]
%
%
